resources/haticons/SVG/dribbble1.svg

<svg xmlns="http://www.w3.org/2000/svg" width="24" height="24"><path d="M12 24C5.385 24 0 18.615 0 12S5.385 0 12 0s12 5.385 12 12-5.385 12-12 12zm10.12-10.358c-.35-.11-3.17-.953-6.384-.438 1.34 3.684 1.887 6.684 1.992 7.308a10.28 10.28 0 0 0 4.395-6.87zm-6.115 7.808c-.153-.9-.75-4.032-2.19-7.77l-.066.02c-5.79 2.015-7.86 6.025-8.04 6.4a10.161 10.161 0 0 0 6.29 2.166c1.42 0 2.77-.29 4-.814zm-11.62-2.58c.232-.4 3.045-5.055 8.332-6.765.135-.045.27-.084.405-.12-.26-.585-.54-1.167-.832-1.74C7.17 11.775 2.206 11.71 1.756 11.7l-.004.312c0 2.633.998 5.037 2.634 6.855zm-2.42-8.955c.46.008 4.683.026 9.477-1.248a65.473 65.473 0 0 0-3.8-5.928 10.275 10.275 0 0 0-5.676 7.17zM9.6 2.052c.282.38 2.145 2.914 3.822 6 3.645-1.365 5.19-3.44 5.373-3.702A10.19 10.19 0 0 0 12 1.764c-.825 0-1.63.1-2.4.285zm10.335 3.483c-.218.29-1.935 2.493-5.724 4.04.24.49.47.985.68 1.486.08.18.15.36.22.53 3.41-.43 6.8.26 7.14.33-.02-2.42-.88-4.64-2.31-6.38z"/></svg>

<!-- Generated by IcoMoon.io -->
<svg version="1.1" xmlns="http://www.w3.org/2000/svg" width="24" height="24" viewBox="0 0 24 24">
<title>dribbble1</title>
<path d="M12 24c-6.615 0-12-5.385-12-12s5.385-12 12-12 12 5.385 12 12-5.385 12-12 12zM22.12 13.642c-0.35-0.11-3.17-0.953-6.384-0.438 1.34 3.684 1.887 6.684 1.992 7.308 2.3-1.555 3.936-4.020 4.395-6.87zM16.005 21.45c-0.153-0.9-0.75-4.032-2.19-7.77l-0.066 0.020c-5.79 2.015-7.86 6.025-8.040 6.4 1.73 1.358 3.92 2.166 6.29 2.166 1.42 0 2.77-0.29 4-0.814zM4.385 18.87c0.232-0.4 3.045-5.055 8.332-6.765 0.135-0.045 0.27-0.084 0.405-0.12-0.26-0.585-0.54-1.167-0.832-1.74-5.12 1.53-10.084 1.465-10.534 1.455l-0.004 0.312c0 2.633 0.998 5.037 2.634 6.855zM1.965 9.915c0.46 0.008 4.683 0.026 9.477-1.248-1.698-3.018-3.53-5.558-3.8-5.928-2.868 1.35-5.010 3.99-5.676 7.17zM9.6 2.052c0.282 0.38 2.145 2.914 3.822 6 3.645-1.365 5.19-3.44 5.373-3.702-1.81-1.61-4.19-2.586-6.795-2.586-0.825 0-1.63 0.1-2.4 0.285zM19.935 5.535c-0.218 0.29-1.935 2.493-5.724 4.040 0.24 0.49 0.47 0.985 0.68 1.486 0.080 0.18 0.15 0.36 0.22 0.53 3.41-0.43 6.8 0.26 7.14 0.33-0.020-2.42-0.88-4.64-2.31-6.38z"></path>
</svg>
